svg/UnitedNationsOCHA-Humanitarian/food_NFI_medical_supply_icon.svg

<svg xmlns="http://www.w3.org/2000/svg" viewBox="0 0 32 32" enable-background="new 0 0 32 32"><path fill="#407cca" d="m24.273 10.197h-3.675v-4.392h-9.197v4.392h-3.674c-2.049 0-3.727 1.678-3.727 3.726v8.545c0 2.049 1.678 3.727 3.727 3.727h16.547c2.049 0 3.727-1.678 3.727-3.727v-8.545c-.0001-2.048-1.679-3.726-3.728-3.726m-9.515 9.07h-2.759v2.756h-2.138v-2.756h-2.758v-2.137h2.758v-2.757h2.138v2.757h2.759v2.137m4.127-9.07h-5.769v-2.678h5.769v2.678"/></svg>

<?xml version="1.0" encoding="utf-8"?>
<!-- Generator: Adobe Illustrator 16.0.3, SVG Export Plug-In . SVG Version: 6.00 Build 0)  -->
<!DOCTYPE svg PUBLIC "-//W3C//DTD SVG 1.1//EN" "http://www.w3.org/Graphics/SVG/1.1/DTD/svg11.dtd">
<svg version="1.1" id="Layer_1" xmlns="http://www.w3.org/2000/svg" xmlns:xlink="http://www.w3.org/1999/xlink" x="0px" y="0px"
	 width="32px" height="32px" viewBox="0 0 32 32" enable-background="new 0 0 32 32" xml:space="preserve">
<path fill="#407CCA" d="M24.273,10.197h-3.675V5.805h-9.197v4.392H7.727C5.678,10.197,4,11.875,4,13.923v8.545
	c0,2.049,1.678,3.727,3.727,3.727h16.547c2.049,0,3.727-1.678,3.727-3.727v-8.545C28,11.875,26.322,10.197,24.273,10.197z
	 M14.758,19.268h-2.759v2.756H9.861v-2.756H7.103v-2.137h2.758v-2.757h2.138v2.757h2.759V19.268z M18.885,10.197h-5.769V7.519h5.769
	V10.197z"/>
</svg>
